!!!SOCIAL_FUNCTION:	war songs
!!!PDT:	1913
!!!OTL: No_84_The_Sioux_Follow_Me.krn
!!!REG: Great_Lakes
!!!LANG: Non-Tone
!!!LING_GROUP: Algonquin
**kern	**kern
*staff2	*staff1
*clefF4	*clefF4
*k[b-e-a-d-g-]	*k[b-e-a-d-g-]
*M3/4	*M3/4
4r	8.d-\L
.	16d-\Jk
=1	=1
12GG-^/	8d-\L
12r	.
.	16A-\L
12GG-/	.
.	16A-\JJ
12GG-^/	4d-\
12r	.
12GG-/	.
12GG-^/	4d-\
12r	.
12GG-/	.
=2||	=2||
*M2/4	*M2/4
2r	8d-\L
.	8d-\J
.	8A-\L
.	16A-\L
.	32d-\L
.	32d-\JJJ
=3	=3
2r	8e-\L
.	8f\J
.	8d-\L
.	16A-\L
.	16A-\JJ
=4	=4
2r	4A-\
.	4A-\
=5	=5
2r	8A-\L
.	8F\J
.	4D-\
=6	=6
2r	4A-\
.	8A-\L
.	16F\L
.	16F\JJ
=7	=7
2r	2A-\
=8	=8
2r	8A-\L
.	8F\J
.	4D-\
=9	=9
2r	8F\L
.	8F\J
.	8F\L
.	8E-\J
=10||	=10||
*M3/4	*M3/4
2.r	8D-\L
.	8D-\J
.	8F/L
.	8AA-/J
.	4D-\
=11	=11
2.r	4AA-/
.	8AA-/L
.	8AA-/J
.	4AA-/
=12	=12
*M2/4	*M2/4
2r	2AA-/
==	==
*-	*-
